X: 1395
T: An Sioda
R: slide
M: 12/8
K: Gmajor
|:A|BGA EGD ~E3 DEG|BGA EGD cBc B2A|
BGA EGD ~E3 DEF|GBA GBA ~G3 G2:|
|:A|~G3 B2d e/f/ge dBA|~G3 B2d ede ~g3|
ded B2d e/f/ge dBA|BAG EDE cBc B2:|

